X:1
T:Title
%%score ( 1 2 ) { ( 3 5 6 ) | 4 }
L:1/8
Q:1/4=88
M:6/8
K:F
V:1 treble nm="Grand Piano, Soprano"
V:2 treble 
V:3 bass nm="Choir Pad, Beautiful City of Gold"
V:5 bass 
V:6 bass 
V:4 bass 
V:1
 CDE FEF | B3 A2 A | BBD E2 B | A3- A3/2 z/ A | G^FG c2 G | A A2- A3/2 z/ A | AGF EAG | F6 | %8
w: By~Mabeth~Kilgore * * * * *||||||||
 [Fc][FA][Fd] [Fc][FA]F | B3 z3 | [B,D][CE][CF] [DF][^CE][DF] | [FA][EG][DF] E2 c | %12
w: ||||
 [Fc][FA][Fd] [Fc][FA][_EF] | [DF][DB][Ec] [Fd]2 [Fd] | .c3 z3 | [EB][EA][EG] F3- | F3 z3 |] %17
w: |||||
V:2
 x6 | x6 | x6 | x6 | x6 | x6 | x6 | x6 | x6 | EGF .[EB]3 | x6 | x6 | x6 | x6 | %14
 F-[FA][Bc] [Af][Ac][FA] | x6 | x6 |] %17
V:3
 A,B,G, A,G,A, | D3 C2 C | DDB, G,2 D | C3- C3/2 z/ C | B,A,B, E2 E | .D3 z2 C | CB,A, G,CB, | %7
 A,6 | A,CB, A,[K:treble]CC | C2 C .C3 | B,B,A, =B,_B,=B, | =B,B,B, B,3 | A,CB, A,CA, | %13
 B,F,F, B,2 _A, | A,[K:treble]CE FFC | DCB, A,3- | A,3 z3 |] %17
V:4
 F,,3 F,,3 | [F,,F,]6 | [C,E,]3 C,3 | [F,,F,]6 | C,3 C,3 | F,,3 z3 | [F,,F,]3 C,3 | [F,,F,]6 | %8
 F,F,F, F,F,A, | G,E,D, .C,3 | C,C,C, G,,G,,G,, | G,G,G, C,3 | F,F,F, F,F,F, | %13
 B,,B,,B,, B,,2 =B,, | C,2 G, F,F,F, | C,C,C, F,3- | F,3 z3 |] %17
V:5
 x6 | x6 | x6 | x6 | x6 | z C2- C3/2 z/ z | x6 | x6 | x4[K:treble] x2 | x6 | x6 | x6 | x6 | x6 | %14
 x[K:treble] x5 | x6 | x6 |] %17
V:6
 x6 | x6 | x6 | x6 | x6 | z3 F,,3 | x6 | x6 | x4[K:treble] x2 | x6 | x6 | x6 | x6 | x6 | %14
 x[K:treble] x5 | x6 | x6 |] %17

